openmetadata-ui/src/main/resources/ui/src/assets/img/no-data-placeholder.svg

<svg width="92" height="92" viewBox="0 0 92 92" fill="none" xmlns="http://www.w3.org/2000/svg">
<g clip-path="url(#clip0_13876_31244)">
<g filter="url(#filter0_d_13876_31244)">
<path fill-rule="evenodd" clip-rule="evenodd" d="M79.0012 60.9674L62.2389 40.6959C61.4345 39.7417 60.2589 39.1641 59.0209 39.1641H22.9809C21.7436 39.1641 20.568 39.7417 19.7636 40.6959L3.00195 60.9674V71.5579H79.002V60.9674H79.0012Z" fill="#9CA3AF"/>
<path fill-rule="evenodd" clip-rule="evenodd" d="M17.2048 13H64.8002C65.5435 13 66.2563 13.2901 66.7819 13.8066C67.3074 14.323 67.6027 15.0235 67.6027 15.7538V80.0169C67.6027 80.7473 67.3074 81.4477 66.7819 81.9642C66.2563 82.4806 65.5435 82.7707 64.8002 82.7707H17.2048C16.4616 82.7707 15.7487 82.4806 15.2232 81.9642C14.6976 81.4477 14.4023 80.7473 14.4023 80.0169V15.7538C14.4023 15.0235 14.6976 14.323 15.2232 13.8066C15.7487 13.2901 16.4616 13 17.2048 13V13Z" fill="#DCE3EC"/>
<path fill-rule="evenodd" clip-rule="evenodd" d="M78.8471 85.3111C78.3041 87.4254 76.397 89.0012 74.1284 89.0012H7.87548C5.60687 89.0012 3.69977 87.4247 3.15749 85.3111C3.05406 84.9082 3.00182 84.4943 3.00195 84.0788V60.9694H21.4409C23.4776 60.9694 25.1192 62.6548 25.1192 64.7009V64.7284C25.1192 66.7738 26.7797 68.4254 28.8164 68.4254H53.1875C55.2242 68.4254 56.8847 66.7586 56.8847 64.7126V64.7043C56.8847 62.6582 58.5263 60.9688 60.563 60.9688H79.002V84.0795C79.002 84.5043 78.948 84.9166 78.8471 85.3111Z" fill="#C9D2DD"/>
<path fill-rule="evenodd" clip-rule="evenodd" d="M23.4035 19.8516H58.6007C58.9723 19.8516 59.3288 19.9966 59.5915 20.2549C59.8543 20.5131 60.0019 20.8633 60.0019 21.2285V38.4102C60.0019 38.7754 59.8543 39.1256 59.5915 39.3839C59.3288 39.6421 58.9723 39.7871 58.6007 39.7871H23.4035C23.0319 39.7871 22.6755 39.6421 22.4127 39.3839C22.1499 39.1256 22.0023 38.7754 22.0023 38.4102V21.2285C22.0023 20.8633 22.1499 20.5131 22.4127 20.2549C22.6755 19.9966 23.0319 19.8516 23.4035 19.8516ZM23.5871 47.2617H58.4171C58.8375 47.2617 59.2406 47.4258 59.5378 47.7178C59.835 48.0099 60.0019 48.406 60.0019 48.819C60.0019 49.232 59.835 49.6281 59.5378 49.9201C59.2406 50.2122 58.8375 50.3763 58.4171 50.3763H23.5871C23.1668 50.3763 22.7637 50.2122 22.4665 49.9201C22.1693 49.6281 22.0023 49.232 22.0023 48.819C22.0023 48.406 22.1693 48.0099 22.4665 47.7178C22.7637 47.4258 23.1668 47.2617 23.5871 47.2617ZM23.5871 55.36H58.4171C58.8376 55.36 59.2407 55.5241 59.538 55.8162C59.8353 56.1083 60.0023 56.5045 60.0023 56.9176C60.0023 57.3307 59.8353 57.7269 59.538 58.019C59.2407 58.3111 58.8376 58.4752 58.4171 58.4752H23.5871C23.1667 58.4752 22.7635 58.3111 22.4662 58.019C22.169 57.7269 22.002 57.3307 22.002 56.9176C22.002 56.5045 22.169 56.1083 22.4662 55.8162C22.7635 55.5241 23.1667 55.36 23.5871 55.36Z" fill="#9CA3AF"/>
</g>
<g filter="url(#filter1_d_13876_31244)">
<path fill-rule="evenodd" clip-rule="evenodd" d="M68.936 21.3964L65.007 22.8608C64.9061 22.8985 64.7961 22.908 64.6898 22.8884C64.5835 22.8687 64.4851 22.8206 64.4059 22.7496C64.3268 22.6786 64.2701 22.5876 64.2424 22.487C64.2147 22.3864 64.2172 22.2804 64.2494 22.1811L65.3637 18.7512C63.8744 17.1244 63 15.1407 63 13C63 7.47699 68.8203 3 76.0006 3C83.1791 3 89 7.47699 89 13C89 18.523 83.1797 23 76 23C73.3953 23 70.97 22.411 68.936 21.3964Z" fill="#1890FF"/>
<path d="M80.7452 14.2017C81.64 14.2017 82.3653 13.4849 82.3653 12.6008C82.3653 11.7167 81.64 11 80.7452 11C79.8504 11 79.125 11.7167 79.125 12.6008C79.125 13.4849 79.8504 14.2017 80.7452 14.2017Z" fill="white"/>
<path fill-rule="evenodd" clip-rule="evenodd" d="M72.2403 14.0005H69L70.648 11.1992L72.2403 14.0005ZM74.2654 11.1992H77.1003V14.0005H74.2654V11.1992Z" fill="white"/>
</g>
</g>
<defs>
<filter id="filter0_d_13876_31244" x="1.00195" y="11" width="80" height="80" filterUnits="userSpaceOnUse" color-interpolation-filters="sRGB">
<feFlood flood-opacity="0" result="BackgroundImageFix"/>
<feColorMatrix in="SourceAlpha" type="matrix" values="0 0 0 0 0 0 0 0 0 0 0 0 0 0 0 0 0 0 127 0" result="hardAlpha"/>
<feOffset/>
<feGaussianBlur stdDeviation="1"/>
<feComposite in2="hardAlpha" operator="out"/>
<feColorMatrix type="matrix" values="0 0 0 0 0 0 0 0 0 0 0 0 0 0 0 0 0 0 0.12 0"/>
<feBlend mode="normal" in2="BackgroundImageFix" result="effect1_dropShadow_13876_31244"/>
<feBlend mode="normal" in="SourceGraphic" in2="effect1_dropShadow_13876_31244" result="shape"/>
</filter>
<filter id="filter1_d_13876_31244" x="59" y="1" width="34" height="28" filterUnits="userSpaceOnUse" color-interpolation-filters="sRGB">
<feFlood flood-opacity="0" result="BackgroundImageFix"/>
<feColorMatrix in="SourceAlpha" type="matrix" values="0 0 0 0 0 0 0 0 0 0 0 0 0 0 0 0 0 0 127 0" result="hardAlpha"/>
<feOffset dy="2"/>
<feGaussianBlur stdDeviation="2"/>
<feComposite in2="hardAlpha" operator="out"/>
<feColorMatrix type="matrix" values="0 0 0 0 0 0 0 0 0 0 0 0 0 0 0 0 0 0 0.1 0"/>
<feBlend mode="normal" in2="BackgroundImageFix" result="effect1_dropShadow_13876_31244"/>
<feBlend mode="normal" in="SourceGraphic" in2="effect1_dropShadow_13876_31244" result="shape"/>
</filter>
<clipPath id="clip0_13876_31244">
<rect width="92" height="92" fill="white"/>
</clipPath>
</defs>
</svg>

<svg xmlns="http://www.w3.org/2000/svg" width="92" height="92" fill="none"><g clip-path="url(#a)"><g fill-rule="evenodd" clip-rule="evenodd" filter="url(#b)"><path fill="#9CA3AF" d="M79.001 60.967 62.24 40.696c-.804-.954-1.98-1.532-3.218-1.532H22.98c-1.237 0-2.413.578-3.217 1.532L3.002 60.967v10.59h76v-10.59Z"/><path fill="#DCE3EC" d="M17.205 13H64.8c.743 0 1.456.29 1.982.807a2.73 2.73 0 0 1 .82 1.947v64.263c0 .73-.295 1.43-.82 1.947a2.828 2.828 0 0 1-1.982.807H17.205c-.743 0-1.456-.29-1.982-.807a2.73 2.73 0 0 1-.82-1.947V15.754c0-.73.295-1.431.82-1.947A2.827 2.827 0 0 1 17.205 13Z"/><path fill="#C9D2DD" d="M78.847 85.311c-.543 2.114-2.45 3.69-4.719 3.69H7.875c-2.268 0-4.175-1.576-4.718-3.69a4.949 4.949 0 0 1-.155-1.232v-23.11H21.44c2.037 0 3.678 1.686 3.678 3.732v.027a3.698 3.698 0 0 0 3.697 3.697h24.372c2.036 0 3.697-1.666 3.697-3.712v-.009c0-2.046 1.641-3.735 3.678-3.735h18.439v23.11c0 .425-.054.838-.155 1.232Z"/><path fill="#9CA3AF" d="M23.404 19.852H58.6c.371 0 .728.145.99.403.263.258.41.608.41.974V38.41c0 .365-.147.716-.41.974-.262.258-.619.403-.99.403H23.404c-.372 0-.729-.145-.991-.403a1.365 1.365 0 0 1-.41-.974V21.23c0-.366.147-.716.41-.974.262-.258.619-.403.99-.403Zm.183 27.41h34.83a1.6 1.6 0 0 1 1.12.456c.298.292.465.688.465 1.101 0 .413-.167.81-.464 1.101-.297.292-.7.456-1.12.456h-34.83c-.421 0-.824-.164-1.122-.456a1.544 1.544 0 0 1-.464-1.101c0-.413.167-.81.465-1.101a1.6 1.6 0 0 1 1.12-.456Zm0 8.098h34.83a1.6 1.6 0 0 1 1.121.456c.297.292.464.688.464 1.102 0 .413-.167.809-.464 1.101a1.6 1.6 0 0 1-1.12.456h-34.83a1.6 1.6 0 0 1-1.122-.456 1.544 1.544 0 0 1-.464-1.101c0-.413.167-.81.464-1.102a1.6 1.6 0 0 1 1.121-.456Z"/></g><g filter="url(#c)"><path fill="#1890FF" fill-rule="evenodd" d="m68.936 21.396-3.929 1.465a.598.598 0 0 1-.601-.111.532.532 0 0 1-.157-.569l1.115-3.43C63.874 17.124 63 15.141 63 13c0-5.523 5.82-10 13-10s13 4.477 13 10-5.82 10-13 10c-2.605 0-5.03-.589-7.064-1.604Z" clip-rule="evenodd"/><path fill="#fff" d="M80.745 14.202a1.61 1.61 0 0 0 1.62-1.601c0-.884-.725-1.601-1.62-1.601a1.61 1.61 0 0 0-1.62 1.6c0 .885.725 1.602 1.62 1.602Z"/><path fill="#fff" fill-rule="evenodd" d="M72.24 14H69l1.648-2.8L72.24 14Zm2.025-2.8H77.1V14h-2.835v-2.8Z" clip-rule="evenodd"/></g></g><defs><filter id="b" width="80" height="80" x="1.002" y="11" color-interpolation-filters="sRGB" filterUnits="userSpaceOnUse"><feFlood flood-opacity="0" result="BackgroundImageFix"/><feColorMatrix in="SourceAlpha" result="hardAlpha" values="0 0 0 0 0 0 0 0 0 0 0 0 0 0 0 0 0 0 127 0"/><feOffset/><feGaussianBlur stdDeviation="1"/><feComposite in2="hardAlpha" operator="out"/><feColorMatrix values="0 0 0 0 0 0 0 0 0 0 0 0 0 0 0 0 0 0 0.12 0"/><feBlend in2="BackgroundImageFix" result="effect1_dropShadow_13876_31244"/><feBlend in="SourceGraphic" in2="effect1_dropShadow_13876_31244" result="shape"/></filter><filter id="c" width="34" height="28" x="59" y="1" color-interpolation-filters="sRGB" filterUnits="userSpaceOnUse"><feFlood flood-opacity="0" result="BackgroundImageFix"/><feColorMatrix in="SourceAlpha" result="hardAlpha" values="0 0 0 0 0 0 0 0 0 0 0 0 0 0 0 0 0 0 127 0"/><feOffset dy="2"/><feGaussianBlur stdDeviation="2"/><feComposite in2="hardAlpha" operator="out"/><feColorMatrix values="0 0 0 0 0 0 0 0 0 0 0 0 0 0 0 0 0 0 0.1 0"/><feBlend in2="BackgroundImageFix" result="effect1_dropShadow_13876_31244"/><feBlend in="SourceGraphic" in2="effect1_dropShadow_13876_31244" result="shape"/></filter><clipPath id="a"><path fill="#fff" d="M0 0h92v92H0z"/></clipPath></defs></svg>
